icons/svg/placeholder_28.svg

<?xml version="1.0" encoding="UTF-8"?>
<svg width="28px" height="28px" viewBox="0 0 28 28" version="1.1" xmlns="http://www.w3.org/2000/svg" xmlns:xlink="http://www.w3.org/1999/xlink">
    <!-- Generator: Sketch 57.1 (83088) - https://sketch.com -->
    <title>placeholder_28</title>
    <desc>Created with Sketch.</desc>
    <g id="Icons-Webex" stroke="none" stroke-width="1" fill="none" fill-rule="evenodd">
        <g id="content/placeholder_28" fill="#171B1F">
            <path d="M3,0 L25,0 C26.6568542,0 28,1.34314575 28,3 L28,25 C28,26.6568542 26.6568542,28 25,28 L3,28 C1.34314575,28 0,26.6568542 0,25 L0,3 C0,1.34314575 1.34314575,0 3,0 Z M3,1 C1.8954305,1 1,1.8954305 1,3 L1,25 C1,26.1045695 1.8954305,27 3,27 L25,27 C26.1045695,27 27,26.1045695 27,25 L27,3 C27,1.8954305 26.1045695,1 25,1 L3,1 Z" id="fill"></path>
        </g>
    </g>
</svg>

<svg width="28" height="28" xmlns="http://www.w3.org/2000/svg"><path d="M3 0h22a3 3 0 013 3v22a3 3 0 01-3 3H3a3 3 0 01-3-3V3a3 3 0 013-3zm0 1a2 2 0 00-2 2v22a2 2 0 002 2h22a2 2 0 002-2V3a2 2 0 00-2-2H3z" fill="#171B1F" fill-rule="evenodd"/></svg>
